packages/kaspersky-hexa-ui-icons/src/iconsSVGs/16/KiraColor.svg

<svg viewBox="0 0 16 16" xmlns="http://www.w3.org/2000/svg" xmlns:xlink="http://www.w3.org/1999/xlink" width="16" height="16" fill="none">
	<defs>
		<linearGradient id="paint_linear_0" x1="10.6760006" x2="2.28547192" y1="-0.912735939" y2="7.62261105" gradientUnits="userSpaceOnUse">
			<stop stop-color="var(--icon--ai--violet, rgb(195,61,170))" offset="0" stop-opacity="1" />
			<stop stop-color="var(--icon--ai--marina, rgb(66,105,231))" offset="1" stop-opacity="1" />
		</linearGradient>
		<linearGradient id="paint_linear_1" x1="1.35491931" x2="7.00154209" y1="8.01151848" y2="8.01151848" gradientUnits="userSpaceOnUse">
			<stop stop-color="var(--icon--ai--green, rgb(41,204,177))" offset="0" stop-opacity="1" />
			<stop stop-color="var(--icon--ai--green_0, rgb(41,204,177))" offset="1" stop-opacity="0" />
		</linearGradient>
	</defs>
	<rect id="ai_mode" width="16" height="16" x="0.000000" y="0.000000" />
	<path id="color" d="M9.65286 1.47596C9.91161 1.28687 10.2701 1.31479 10.4966 1.54139C10.723 1.76841 10.7498 2.12671 10.5601 2.38514L9.78568 3.43885C9.22618 4.19988 8.80488 5.00426 8.80033 6.01209C8.79931 6.24253 8.82162 6.46215 8.86185 6.67322C8.88885 6.81483 8.92329 6.95282 8.96634 7.08728C9.13959 7.62866 9.43509 8.1171 9.78568 8.59412L10.1988 9.15662C10.5151 8.82419 10.8138 8.496 11.0913 8.17517C11.7085 7.46173 12.2222 6.78645 12.607 6.19861C12.6292 6.16467 12.653 6.13237 12.6743 6.099C12.7559 5.97138 12.8295 5.84961 12.896 5.73475C12.9624 5.62007 13.0212 5.51188 13.0728 5.41053C13.1761 5.20777 13.2505 5.03259 13.2964 4.88709C13.2976 4.88335 13.2972 4.87902 13.2984 4.87537C13.2951 4.87643 13.2919 4.87822 13.2886 4.87928C12.9976 4.97113 12.5866 5.17539 12.0767 5.50135C11.5378 5.84586 10.9217 6.30553 10.2661 6.85682C10.1549 6.57787 10.0999 6.30619 10.1011 6.01795C10.1024 5.73332 10.1575 5.46571 10.2632 5.19373C10.6537 4.89525 11.0268 4.6302 11.3765 4.40662C11.9274 4.0545 12.4487 3.78156 12.897 3.64002C13.1203 3.56958 13.3607 3.52018 13.5952 3.52869C13.8343 3.53748 14.1181 3.60936 14.3423 3.83338L14.4195 3.92029C14.4625 3.9748 14.4976 4.03207 14.5269 4.09021C14.5339 4.1041 14.5401 4.1182 14.5464 4.13221C14.554 4.14911 14.5613 4.16596 14.5679 4.18299C14.5725 4.19496 14.5764 4.20711 14.5806 4.21912C14.5864 4.23569 14.5913 4.25234 14.5962 4.26892C14.6098 4.31483 14.6207 4.36042 14.6285 4.40564C14.6387 4.4654 14.6459 4.52424 14.648 4.58045C14.6543 4.75619 14.6279 4.93525 14.5845 5.10779C14.5701 5.1655 14.5533 5.22272 14.5357 5.27869C14.4649 5.5028 14.3618 5.74527 14.232 6.00037C14.1023 6.25561 13.9461 6.52376 13.7701 6.7992C13.6895 6.92516 13.6021 7.05312 13.5113 7.18494C13.4888 7.21765 13.466 7.25053 13.4429 7.28357C13.383 7.36907 13.3212 7.45573 13.2574 7.54334C13.1903 7.63549 13.1206 7.72836 13.0493 7.82264C13.0034 7.88324 12.9573 7.94482 12.9097 8.00623C12.2719 8.83042 11.4844 9.72549 10.5933 10.6166C9.7061 11.5038 8.81499 12.2887 7.99369 12.9252C7.92953 12.975 7.86556 13.0237 7.80228 13.0717C7.73539 13.1223 7.6689 13.1716 7.60306 13.2201C7.47526 13.3144 7.34953 13.4046 7.22611 13.4906C7.21145 13.5008 7.19675 13.5108 7.18216 13.5209C7.04314 13.617 6.90848 13.7096 6.77591 13.7943C6.29397 14.1024 5.83399 14.3487 5.4263 14.5004C5.36792 14.5221 5.31061 14.5422 5.25443 14.5599C5.19873 14.5775 5.14192 14.5934 5.08451 14.6078C4.91178 14.6511 4.73235 14.6776 4.55618 14.6713C4.40683 14.6658 4.24025 14.6355 4.08158 14.559C3.98638 14.5131 3.89413 14.4504 3.81009 14.3666C3.58593 14.1424 3.51325 13.8586 3.50443 13.6195C3.4959 13.3849 3.54532 13.1446 3.61576 12.9213C3.75727 12.4729 4.03016 11.9517 4.38236 11.4008C4.60664 11.0499 4.87269 10.6755 5.1724 10.2836C5.44747 10.1656 5.71201 10.107 6.01224 10.1049C6.30612 10.1029 6.56987 10.1585 6.84622 10.2748C6.28906 10.9362 5.8243 11.5578 5.47708 12.101C5.15114 12.6109 4.94683 13.0219 4.85501 13.3129C4.85402 13.3161 4.85303 13.3194 4.85208 13.3226C4.8555 13.3216 4.85934 13.3218 4.86283 13.3207C4.93544 13.2978 5.01584 13.2669 5.10306 13.2299C5.36524 13.1184 5.69222 12.9431 6.07474 12.6986C6.69046 12.305 7.40745 11.7604 8.16849 11.101C8.49029 10.8221 8.81959 10.5222 9.15286 10.2045L8.52884 9.76404C7.91178 9.32885 7.30206 8.96362 6.5513 8.8451C6.49674 8.83649 6.44139 8.82955 6.38529 8.82361C6.26224 8.81059 6.13482 8.80417 6.00345 8.80506C4.98803 8.81206 4.25558 9.23973 3.51224 9.76404L2.37943 10.5638C2.12165 10.7457 1.77025 10.7158 1.54642 10.4935C1.32307 10.2712 1.29125 9.9203 1.47122 9.6615L2.27786 8.50037C2.80074 7.74828 3.18302 7.02745 3.18314 6.016C3.18314 5.00428 2.79324 4.27272 2.27786 3.53162L1.47122 2.37146C1.29044 2.11084 1.32338 1.75722 1.55033 1.53553C1.77733 1.31394 2.13196 1.28906 2.38822 1.47596L3.45267 2.2533C4.20897 2.80615 5.01494 3.20444 6.00736 3.20447C6.99982 3.20447 7.81535 2.8184 8.58841 2.2533L9.65286 1.47596ZM13.8921 9.66248C13.5975 9.45755 13.1919 9.52997 12.9868 9.82459C12.6794 10.2664 12.0917 10.9225 11.438 11.5756C10.7876 12.2253 10.1124 12.8314 9.64798 13.1781C9.36043 13.3928 9.30153 13.8006 9.51615 14.0883C9.7309 14.3755 10.1378 14.4345 10.4253 14.2201C10.961 13.8202 11.6864 13.1653 12.357 12.4955C13.0242 11.8289 13.6787 11.1064 14.0542 10.5668C14.259 10.2723 14.1863 9.86757 13.8921 9.66248Z" fill="url(#paint_linear_0)" fill-rule="evenodd" />
	<path id="color" d="M9.65286 1.47596C9.91161 1.28687 10.2701 1.31479 10.4966 1.54139C10.723 1.76841 10.7498 2.12671 10.5601 2.38514L9.78568 3.43885C9.22618 4.19988 8.80488 5.00426 8.80033 6.01209C8.79931 6.24253 8.82162 6.46215 8.86185 6.67322C8.88885 6.81483 8.92329 6.95282 8.96634 7.08728C9.13959 7.62866 9.43509 8.1171 9.78568 8.59412L10.1988 9.15662C10.5151 8.82419 10.8138 8.496 11.0913 8.17517C11.7085 7.46173 12.2222 6.78645 12.607 6.19861C12.6292 6.16467 12.653 6.13237 12.6743 6.099C12.7559 5.97138 12.8295 5.84961 12.896 5.73475C12.9624 5.62007 13.0212 5.51188 13.0728 5.41053C13.1761 5.20777 13.2505 5.03259 13.2964 4.88709C13.2976 4.88335 13.2972 4.87902 13.2984 4.87537C13.2951 4.87643 13.2919 4.87822 13.2886 4.87928C12.9976 4.97113 12.5866 5.17539 12.0767 5.50135C11.5378 5.84586 10.9217 6.30553 10.2661 6.85682C10.1549 6.57787 10.0999 6.30619 10.1011 6.01795C10.1024 5.73332 10.1575 5.46571 10.2632 5.19373C10.6537 4.89525 11.0268 4.6302 11.3765 4.40662C11.9274 4.0545 12.4487 3.78156 12.897 3.64002C13.1203 3.56958 13.3607 3.52018 13.5952 3.52869C13.8343 3.53748 14.1181 3.60936 14.3423 3.83338L14.4195 3.92029C14.4625 3.9748 14.4976 4.03207 14.5269 4.09021C14.5339 4.1041 14.5401 4.1182 14.5464 4.13221C14.554 4.14911 14.5613 4.16596 14.5679 4.18299C14.5725 4.19496 14.5764 4.20711 14.5806 4.21912C14.5864 4.23569 14.5913 4.25234 14.5962 4.26892C14.6098 4.31483 14.6207 4.36042 14.6285 4.40564C14.6387 4.4654 14.6459 4.52424 14.648 4.58045C14.6543 4.75619 14.6279 4.93525 14.5845 5.10779C14.5701 5.1655 14.5533 5.22272 14.5357 5.27869C14.4649 5.5028 14.3618 5.74527 14.232 6.00037C14.1023 6.25561 13.9461 6.52376 13.7701 6.7992C13.6895 6.92516 13.6021 7.05312 13.5113 7.18494C13.4888 7.21765 13.466 7.25053 13.4429 7.28357C13.383 7.36907 13.3212 7.45573 13.2574 7.54334C13.1903 7.63549 13.1206 7.72836 13.0493 7.82264C13.0034 7.88324 12.9573 7.94482 12.9097 8.00623C12.2719 8.83042 11.4844 9.72549 10.5933 10.6166C9.7061 11.5038 8.81499 12.2887 7.99369 12.9252C7.92953 12.975 7.86556 13.0237 7.80228 13.0717C7.73539 13.1223 7.6689 13.1716 7.60306 13.2201C7.47526 13.3144 7.34953 13.4046 7.22611 13.4906C7.21145 13.5008 7.19675 13.5108 7.18216 13.5209C7.04314 13.617 6.90848 13.7096 6.77591 13.7943C6.29397 14.1024 5.83399 14.3487 5.4263 14.5004C5.36792 14.5221 5.31061 14.5422 5.25443 14.5599C5.19873 14.5775 5.14192 14.5934 5.08451 14.6078C4.91178 14.6511 4.73235 14.6776 4.55618 14.6713C4.40683 14.6658 4.24025 14.6355 4.08158 14.559C3.98638 14.5131 3.89413 14.4504 3.81009 14.3666C3.58593 14.1424 3.51325 13.8586 3.50443 13.6195C3.4959 13.3849 3.54532 13.1446 3.61576 12.9213C3.75727 12.4729 4.03016 11.9517 4.38236 11.4008C4.60664 11.0499 4.87269 10.6755 5.1724 10.2836C5.44747 10.1656 5.71201 10.107 6.01224 10.1049C6.30612 10.1029 6.56987 10.1585 6.84622 10.2748C6.28906 10.9362 5.8243 11.5578 5.47708 12.101C5.15114 12.6109 4.94683 13.0219 4.85501 13.3129C4.85402 13.3161 4.85303 13.3194 4.85208 13.3226C4.8555 13.3216 4.85934 13.3218 4.86283 13.3207C4.93544 13.2978 5.01584 13.2669 5.10306 13.2299C5.36524 13.1184 5.69222 12.9431 6.07474 12.6986C6.69046 12.305 7.40745 11.7604 8.16849 11.101C8.49029 10.8221 8.81959 10.5222 9.15286 10.2045L8.52884 9.76404C7.91178 9.32885 7.30206 8.96362 6.5513 8.8451C6.49674 8.83649 6.44139 8.82955 6.38529 8.82361C6.26224 8.81059 6.13482 8.80417 6.00345 8.80506C4.98803 8.81206 4.25558 9.23973 3.51224 9.76404L2.37943 10.5638C2.12165 10.7457 1.77025 10.7158 1.54642 10.4935C1.32307 10.2712 1.29125 9.9203 1.47122 9.6615L2.27786 8.50037C2.80074 7.74828 3.18302 7.02745 3.18314 6.016C3.18314 5.00428 2.79324 4.27272 2.27786 3.53162L1.47122 2.37146C1.29044 2.11084 1.32338 1.75722 1.55033 1.53553C1.77733 1.31394 2.13196 1.28906 2.38822 1.47596L3.45267 2.2533C4.20897 2.80615 5.01494 3.20444 6.00736 3.20447C6.99982 3.20447 7.81535 2.8184 8.58841 2.2533L9.65286 1.47596ZM13.8921 9.66248C13.5975 9.45755 13.1919 9.52997 12.9868 9.82459C12.6794 10.2664 12.0917 10.9225 11.438 11.5756C10.7876 12.2253 10.1124 12.8314 9.64798 13.1781C9.36043 13.3928 9.30153 13.8006 9.51615 14.0883C9.7309 14.3755 10.1378 14.4345 10.4253 14.2201C10.961 13.8202 11.6864 13.1653 12.357 12.4955C13.0242 11.8289 13.6787 11.1064 14.0542 10.5668C14.259 10.2723 14.1863 9.86757 13.8921 9.66248Z" fill="url(#paint_linear_1)" fill-rule="evenodd" />
</svg>

<svg xmlns="http://www.w3.org/2000/svg" width="16" height="16" fill="none" viewBox="0 0 16 16"><defs><linearGradient id="a" x1="11" x2="2" y1="-1" y2="8" gradientUnits="userSpaceOnUse"><stop offset="0" stop-color="var(--icon--ai--violet, rgb(195,61,170))"/><stop offset="1" stop-color="var(--icon--ai--marina, rgb(66,105,231))"/></linearGradient><linearGradient id="b" x1="1" x2="7" y1="8" y2="8" gradientUnits="userSpaceOnUse"><stop offset="0" stop-color="var(--icon--ai--green, rgb(41,204,177))"/><stop offset="1" stop-color="var(--icon--ai--green_0, rgb(41,204,177))" stop-opacity="0"/></linearGradient></defs><path fill="url(#a)" fill-rule="evenodd" d="M9.6529 1.476a.651.651 0 0 1 .8437.0654.65.65 0 0 1 .0635.8437L9.7857 3.439c-.5595.761-.9808 1.5654-.9854 2.5732-.001.2304.0213.45.0616.6611.027.1416.0614.2796.1044.414.1733.5415.4688 1.0299.8194 1.507l.4131.5624c.3163-.3324.615-.6606.8925-.9814.6172-.7135 1.1309-1.3887 1.5157-1.9766.0222-.034.046-.0662.0673-.0996a10 10 0 0 0 .2217-.3643 7 7 0 0 0 .1768-.3242c.1033-.2027.1777-.378.2236-.5234.0012-.0038.0008-.008.002-.0117-.0033.001-.0065.0028-.0098.0039-.291.0918-.702.296-1.2119.622-.5389.3446-1.155.8042-1.8106 1.3555-.1112-.279-.1662-.5506-.165-.8388.0013-.2847.0564-.5523.1621-.8243.3905-.2984.7636-.5635 1.1133-.787.5509-.3522 1.0722-.6251 1.5205-.7667.2233-.0704.4637-.1198.6982-.1113.2391.0088.5229.0807.7471.3047l.0772.0869a1 1 0 0 1 .1074.17c.007.0138.0132.0279.0195.042q.0115.0252.0215.0507c.0046.012.0085.0241.0127.0361.0058.0166.0107.0332.0156.0498a1.2 1.2 0 0 1 .0323.1367 1.35 1.35 0 0 1 .0195.1749c.0063.1757-.0201.3548-.0635.5273a3 3 0 0 1-.0488.1709c-.0708.2241-.1739.4666-.3037.7217-.1297.2552-.2859.5234-.4619.7988-.0806.126-.168.254-.2588.3857a16 16 0 0 1-.2539.3584 19 19 0 0 1-.2081.2793c-.0459.0606-.092.1222-.1396.1836-.6378.8242-1.4253 1.7193-2.3164 2.6104-.8872.8872-1.7783 1.6721-2.5996 2.3086a20 20 0 0 1-.3906.2949 17 17 0 0 1-.377.2705l-.044.0303c-.139.0961-.2736.1887-.4062.2734-.482.3081-.942.5544-1.3496.7061a3.6 3.6 0 0 1-.1719.0595 3 3 0 0 1-.1699.0479c-.1727.0433-.3521.0698-.5283.0635-.1494-.0055-.316-.0358-.4746-.1123a1 1 0 0 1-.2715-.1924c-.2242-.2242-.2968-.508-.3057-.7471-.0085-.2346.041-.4749.1114-.6982.1415-.4484.4144-.9696.7666-1.5205.2242-.3509.4903-.7253.79-1.1172.275-.118.5396-.1766.8398-.1787.294-.002.5577.0536.834.1699-.5571.6614-1.0219 1.283-1.3691 1.8262-.326.5099-.5303.9209-.622 1.2119l-.003.0097c.0034-.001.0072-.0008.0107-.0019a2.7 2.7 0 0 0 .2403-.0908c.2621-.1115.5891-.2868.9716-.5313.6158-.3936 1.3327-.9382 2.0938-1.5976a28 28 0 0 0 .9844-.8965l-.624-.4405c-.6171-.4352-1.2268-.8004-1.9776-.9189a3.4 3.4 0 0 0-.5479-.04c-1.0154.007-1.7478.4346-2.4912.959l-1.1328.7997a.6504.6504 0 0 1-.833-.0703.6504.6504 0 0 1-.0752-.832l.8067-1.1611c.5228-.7521.9051-1.473.9052-2.4844 0-1.0117-.3899-1.7433-.9052-2.4844l-.8067-1.1601a.6506.6506 0 0 1 .0791-.836.651.651 0 0 1 .838-.0595l1.0644.7773c.7563.5529 1.5622.9511 2.5547.9512.9924 0 1.808-.3861 2.581-.9512zm4.2392 8.1865a.6507.6507 0 0 0-.9053.162c-.3074.4419-.8951 1.098-1.5488 1.7511-.6504.6497-1.3256 1.2558-1.79 1.6025a.651.651 0 0 0-.1319.9102.65.65 0 0 0 .9092.1318c.5357-.3999 1.2611-1.0548 1.9317-1.7246.6672-.6666 1.3217-1.3891 1.6972-1.9287a.65.65 0 0 0-.1621-.9043"/><path fill="url(#b)" fill-rule="evenodd" d="M9.6529 1.476a.651.651 0 0 1 .8437.0654.65.65 0 0 1 .0635.8437L9.7857 3.439c-.5595.761-.9808 1.5654-.9854 2.5732-.001.2304.0213.45.0616.6611.027.1416.0614.2796.1044.414.1733.5415.4688 1.0299.8194 1.507l.4131.5624c.3163-.3324.615-.6606.8925-.9814.6172-.7135 1.1309-1.3887 1.5157-1.9766.0222-.034.046-.0662.0673-.0996a10 10 0 0 0 .2217-.3643 7 7 0 0 0 .1768-.3242c.1033-.2027.1777-.378.2236-.5234.0012-.0038.0008-.008.002-.0117-.0033.001-.0065.0028-.0098.0039-.291.0918-.702.296-1.2119.622-.5389.3446-1.155.8042-1.8106 1.3555-.1112-.279-.1662-.5506-.165-.8388.0013-.2847.0564-.5523.1621-.8243.3905-.2984.7636-.5635 1.1133-.787.5509-.3522 1.0722-.6251 1.5205-.7667.2233-.0704.4637-.1198.6982-.1113.2391.0088.5229.0807.7471.3047l.0772.0869a1 1 0 0 1 .1074.17c.007.0138.0132.0279.0195.042q.0115.0252.0215.0507c.0046.012.0085.0241.0127.0361.0058.0166.0107.0332.0156.0498a1.2 1.2 0 0 1 .0323.1367 1.35 1.35 0 0 1 .0195.1749c.0063.1757-.0201.3548-.0635.5273a3 3 0 0 1-.0488.1709c-.0708.2241-.1739.4666-.3037.7217-.1297.2552-.2859.5234-.4619.7988-.0806.126-.168.254-.2588.3857a16 16 0 0 1-.2539.3584 19 19 0 0 1-.2081.2793c-.0459.0606-.092.1222-.1396.1836-.6378.8242-1.4253 1.7193-2.3164 2.6104-.8872.8872-1.7783 1.6721-2.5996 2.3086a20 20 0 0 1-.3906.2949 17 17 0 0 1-.377.2705l-.044.0303c-.139.0961-.2736.1887-.4062.2734-.482.3081-.942.5544-1.3496.7061a3.6 3.6 0 0 1-.1719.0595 3 3 0 0 1-.1699.0479c-.1727.0433-.3521.0698-.5283.0635-.1494-.0055-.316-.0358-.4746-.1123a1 1 0 0 1-.2715-.1924c-.2242-.2242-.2968-.508-.3057-.7471-.0085-.2346.041-.4749.1114-.6982.1415-.4484.4144-.9696.7666-1.5205.2242-.3509.4903-.7253.79-1.1172.275-.118.5396-.1766.8398-.1787.294-.002.5577.0536.834.1699-.5571.6614-1.0219 1.283-1.3691 1.8262-.326.5099-.5303.9209-.622 1.2119l-.003.0097c.0034-.001.0072-.0008.0107-.0019a2.7 2.7 0 0 0 .2403-.0908c.2621-.1115.5891-.2868.9716-.5313.6158-.3936 1.3327-.9382 2.0938-1.5976a28 28 0 0 0 .9844-.8965l-.624-.4405c-.6171-.4352-1.2268-.8004-1.9776-.9189a3.4 3.4 0 0 0-.5479-.04c-1.0154.007-1.7478.4346-2.4912.959l-1.1328.7997a.6504.6504 0 0 1-.833-.0703.6504.6504 0 0 1-.0752-.832l.8067-1.1611c.5228-.7521.9051-1.473.9052-2.4844 0-1.0117-.3899-1.7433-.9052-2.4844l-.8067-1.1601a.6506.6506 0 0 1 .0791-.836.651.651 0 0 1 .838-.0595l1.0644.7773c.7563.5529 1.5622.9511 2.5547.9512.9924 0 1.808-.3861 2.581-.9512zm4.2392 8.1865a.6507.6507 0 0 0-.9053.162c-.3074.4419-.8951 1.098-1.5488 1.7511-.6504.6497-1.3256 1.2558-1.79 1.6025a.651.651 0 0 0-.1319.9102.65.65 0 0 0 .9092.1318c.5357-.3999 1.2611-1.0548 1.9317-1.7246.6672-.6666 1.3217-1.3891 1.6972-1.9287a.65.65 0 0 0-.1621-.9043"/></svg>
